packages/gestalt-icons-android/vr-theme/ic_vr_add-circle_gestalt.svg

<svg width="24" height="24" viewBox="0 0 24 24" fill="none" xmlns="http://www.w3.org/2000/svg">
<path d="M11 17V13H7V11H11V7H13V11H17V13H13V17H11Z" fill="black"/>
<path fill-rule="evenodd" clip-rule="evenodd" d="M24 12C24 18.6274 18.6274 24 12 24C5.37258 24 0 18.6274 0 12C0 5.37258 5.37258 0 12 0C18.6274 0 24 5.37258 24 12ZM22 12C22 17.5228 17.5228 22 12 22C6.47715 22 2 17.5228 2 12C2 6.47715 6.47715 2 12 2C17.5228 2 22 6.47715 22 12Z" fill="black"/>
</svg>

<svg xmlns="http://www.w3.org/2000/svg" width="24" height="24"><path d="M11 17v-4H7v-2h4V7h2v4h4v2h-4v4zm13-5a12 12 0 1 1-24 0 12 12 0 0 1 24 0M12 2a10 10 0 1 0 0 20 10 10 0 0 0 0-20"/></svg>
